images/Services/massage.svg

<svg width="107" height="107" viewBox="0 0 107 107"  xmlns="http://www.w3.org/2000/svg">
<path d="M45.8441 78.0976C45.1478 77.4014 44.0189 77.4014 43.3225 78.0976C43.1549 78.267 26.2346 94.7824 4.50112 81.4057C3.66891 80.9528 2.62787 81.2298 2.13069 82.0363C1.6335 82.8428 1.85375 83.8973 2.63219 84.4373C8.32924 88.1164 14.9487 90.1136 21.7299 90.1993C30.6581 90.0011 39.2172 86.5983 45.8441 80.6121C46.5356 79.9165 46.5356 78.7931 45.8441 78.0976Z" fill="#87AD3B"/>
<path d="M38.4362 97.0936C38.2329 97.1952 18.0331 107.066 4.82747 93.8622C4.12773 93.1863 3.01546 93.196 2.32756 93.8839C1.63967 94.5718 1.63001 95.6841 2.30584 96.3838C7.59522 101.622 14.795 104.471 22.2364 104.271C28.3786 104.178 34.4357 102.82 40.0305 100.284C40.6056 100.002 40.9854 99.4336 41.0256 98.7944C41.0658 98.1552 40.7601 97.5436 40.2248 97.192C39.6895 96.8404 39.0068 96.8028 38.4362 97.0936Z" fill="#87AD3B"/>
<path d="M104.368 84.4444C105.146 83.9044 105.366 82.8499 104.869 82.0434C104.372 81.2369 103.331 80.9599 102.499 81.4128C90.3609 89.4649 74.2754 88.0935 63.6757 78.1029C62.9755 77.4275 61.8632 77.438 61.1758 78.1264C60.4884 78.8148 60.4795 79.927 61.1558 80.6263C67.7823 86.6133 76.3417 90.0163 85.2701 90.2135C92.052 90.1257 98.6715 88.126 104.368 84.4444Z" fill="#87AD3B"/>
<path d="M66.9695 100.284C72.5642 102.821 78.6214 104.178 84.7636 104.271C92.2049 104.471 99.4048 101.622 104.694 96.3838C105.37 95.6841 105.36 94.5718 104.672 93.8839C103.985 93.196 102.872 93.1863 102.173 93.8622C89.0008 107.032 68.7671 97.1917 68.562 97.0936C67.6853 96.6803 66.639 97.043 66.2061 97.9102C65.7732 98.7775 66.1123 99.8316 66.9695 100.284Z" fill="#87AD3B"/>
<path d="M49.9333 2.67505H28.5333C27.6622 2.6753 26.9187 3.30492 26.775 4.16413L25.5016 11.77C25.2365 13.3642 24.438 14.821 23.2368 15.902C13.4766 24.6404 13.1859 25.2271 12.9987 25.6034L0.868465 48.2232C-0.230991 50.1751 -0.251925 52.5547 0.813018 54.5256C1.87796 56.4966 3.87979 57.7833 6.11503 57.9334L4.34062 61.2362C3.16483 63.2363 3.14429 65.7116 4.28674 67.731C5.42918 69.7504 7.56137 71.0078 9.88143 71.0302C9.29571 72.9667 9.6511 75.0657 10.8416 76.7014C12.0321 78.3371 13.9203 79.3205 15.943 79.3584C18.257 79.3815 20.3969 78.1322 21.5141 76.1056L21.7228 75.7757C22.8763 77.7725 25.0234 78.9852 27.329 78.9422C29.6347 78.8992 31.7351 77.6073 32.8133 75.5688L42.3898 57.8514L42.479 64.6156C42.4913 67.2244 44.0906 69.563 46.5173 70.5207C48.944 71.4784 51.7093 70.8624 53.5 68.9651C55.295 70.8531 58.056 71.4631 60.4793 70.5072C62.9027 69.5512 64.5037 67.2206 64.5263 64.6156L64.6155 57.8514L74.1866 75.5759C75.2691 77.6102 77.3698 78.8972 79.6738 78.9376C81.9778 78.978 84.1223 77.7654 85.2754 75.7703L85.411 75.9843C86.257 77.5798 87.743 78.739 89.4963 79.1714C91.2497 79.6038 93.1043 79.2684 94.5951 78.2492C96.879 76.6192 97.8884 73.7273 97.115 71.0302C99.4326 71.0091 101.564 69.7551 102.708 67.7393C103.851 65.7235 103.835 63.251 102.665 61.2504L100.881 57.9334C103.118 57.7824 105.12 56.4941 106.184 54.5215C107.249 52.5489 107.226 50.1681 106.124 48.216L94.0262 25.6497C93.814 25.2271 93.5233 24.6457 83.7632 15.902C82.562 14.821 81.7634 13.3642 81.4983 11.77L80.225 4.16413C80.0813 3.30492 79.3378 2.6753 78.4667 2.67505H57.0667C56.0817 2.67505 55.2833 3.47347 55.2833 4.45838C55.2833 9.37147 55.0247 37.0328 54.3078 39.986C54.0439 40.8634 53.7728 41.7943 53.5 42.7162C53.2396 41.8246 52.965 40.9186 52.7171 40.0769C51.9538 36.9525 51.7167 9.97423 51.7167 4.45838C51.7167 3.47347 50.9182 2.67505 49.9333 2.67505V2.67505ZM55.4759 49.2076C55.549 48.5174 56.6993 44.4175 57.7461 40.9222C58.611 37.3859 58.85 10.5538 58.85 6.24172H76.9562L77.9744 12.355C78.3758 14.75 79.5779 16.9379 81.3842 18.561C87.8541 24.3568 90.5684 26.9426 90.859 27.2993L102.986 49.9049C103.81 51.3806 103.298 53.2443 101.835 54.0921C100.563 54.7314 99.0138 54.2906 98.2688 53.0774L90.5184 38.5486C90.2183 37.9863 89.6411 37.6269 89.0041 37.6056C88.3671 37.5844 87.7672 37.9046 87.4303 38.4456C87.0934 38.9866 87.0707 39.6662 87.3708 40.2285C98.3187 60.7475 92.4944 49.8585 99.5403 62.9624C100.348 64.316 99.9985 66.0611 98.7325 66.9999C98.0746 67.4228 97.2711 67.5548 96.5125 67.3647C95.7539 67.1745 95.1077 66.6791 94.7271 65.9959C93.7035 64.061 98.5381 73.3842 83.8488 45.6659C83.558 45.0893 82.9784 44.715 82.3334 44.6871C81.6883 44.6593 81.0785 44.9823 80.7392 45.5316C80.3999 46.0809 80.384 46.7707 80.6976 47.3351C86.5113 58.3097 91.6027 67.9433 93.3985 71.2692C94.1913 72.6252 93.8486 74.3595 92.5996 75.312C91.9236 75.7673 91.0834 75.907 90.2965 75.6948C89.5096 75.4827 88.8534 74.9397 88.4979 74.2063C83.7221 66.6789 86.9856 72.4783 74.6075 49.1148C74.1461 48.2447 73.0666 47.9133 72.1965 48.3747C71.3263 48.8362 70.9949 49.9157 71.4564 50.7858C80.4872 67.8309 82.0833 70.884 82.3062 71.1943C82.8896 72.4879 82.5141 74.0127 81.3967 74.8876C80.7342 75.3332 79.9144 75.4784 79.1392 75.2876C78.3639 75.0968 77.7052 74.5875 77.3253 73.8853L64.4853 50.1117C64.0994 49.3964 63.2786 49.0326 62.4894 49.2269C61.7002 49.4213 61.1423 50.1247 61.1326 50.9374L60.9543 64.5603C60.9463 65.325 60.6368 66.0556 60.093 66.5933C59.2684 67.391 58.0445 67.6136 56.9919 67.1573C55.9392 66.701 55.2649 65.6557 55.2833 64.5086L55.4759 49.2076ZM51.7167 64.5086C51.7402 65.6593 51.0662 66.7103 50.0105 67.1689C48.9548 67.6275 47.7267 67.403 46.9016 66.6004C46.3581 66.0633 46.0486 65.3333 46.0403 64.5692L45.862 50.9445C45.8523 50.1318 45.2944 49.4284 44.5052 49.2341C43.716 49.0397 42.8952 49.4036 42.5093 50.1189L29.6693 73.8675C29.2908 74.5726 28.6316 75.0845 27.8547 75.2766C27.0778 75.4686 26.256 75.3227 25.5926 74.8751C24.4764 73.9994 24.1018 72.4751 24.6849 71.1818C24.9078 70.8715 26.5039 67.8184 35.5347 50.7733C35.8332 50.2104 35.8087 49.5311 35.4705 48.9911C35.1322 48.4511 34.5316 48.1327 33.8949 48.1556C33.2581 48.1786 32.682 48.5395 32.3835 49.1024C20.0589 72.3659 23.0995 66.9357 18.4236 74.3151C18.0437 75.0054 17.3918 75.5048 16.6265 75.6919C15.8611 75.879 15.0523 75.7367 14.3968 75.2995C13.1478 74.347 12.8051 72.6127 13.5979 71.2567C15.4026 67.913 21.1895 56.9669 26.2988 47.3226C26.6124 46.7582 26.5965 46.0684 26.2572 45.5191C25.9179 44.9698 25.3081 44.6468 24.663 44.6746C24.018 44.7025 23.4384 45.0769 23.1476 45.6534C8.55998 73.2041 13.3036 64.0538 12.28 65.9834C11.8985 66.6641 11.2536 67.1577 10.4969 67.3483C9.74024 67.5389 8.93846 67.4097 8.28 66.991C7.00752 66.0482 6.65872 64.2934 7.47393 62.9357C14.3576 50.1278 8.94518 60.2607 19.6363 40.216C20.1002 39.3468 19.7716 38.2662 18.9024 37.8023C18.0332 37.3384 16.9526 37.6669 16.4887 38.5361L8.73832 53.0685C7.98576 54.2716 6.44481 54.71 5.17165 54.0832C3.7122 53.2362 3.1992 51.3768 4.01783 49.9013L16.091 27.3867C16.5885 26.7982 19.3277 24.1963 25.6194 18.561C27.4256 16.9379 28.6277 14.75 29.0291 12.355L30.0438 6.24172H48.15C48.15 10.3666 48.389 37.3894 49.2771 41.0167C50.3007 44.4193 51.4509 48.521 51.5205 49.1398L51.7167 64.5121V64.5086Z" fill="#87AD3B"/>
</svg>
<?xml-stylesheet type="text/css" href="./css/style.min.css"?>

<?xml-stylesheet type="text/css" href="/css/style.min.css"?><svg viewBox="0 0 107 107" xmlns="http://www.w3.org/2000/svg"><path d="M45.844 78.098a1.783 1.783 0 00-2.522 0c-.167.169-17.087 16.684-38.82 3.308a1.783 1.783 0 00-1.87 3.031A36.043 36.043 0 0021.73 90.2a37.206 37.206 0 0024.114-9.587 1.783 1.783 0 000-2.514zm-7.408 18.996c-.203.101-20.403 9.972-33.609-3.232a1.783 1.783 0 00-2.521 2.522 27.282 27.282 0 0019.93 7.887 44.743 44.743 0 0017.795-3.987 1.784 1.784 0 10-1.595-3.19zm65.932-12.65a1.784 1.784 0 00-1.869-3.031c-12.138 8.052-28.224 6.68-38.823-3.31a1.783 1.783 0 00-2.52 2.523 37.195 37.195 0 0024.114 9.587 36.044 36.044 0 0019.098-5.769zm-37.398 15.84a44.725 44.725 0 0017.794 3.987 27.281 27.281 0 0019.93-7.887 1.783 1.783 0 00-2.521-2.522c-13.172 13.17-33.406 3.33-33.611 3.232a1.783 1.783 0 00-1.593 3.19z" fill="#87AD3B"/><path d="M49.933 2.675h-21.4c-.87 0-1.614.63-1.758 1.49l-1.273 7.605a7.133 7.133 0 01-2.265 4.132c-9.76 8.738-10.051 9.325-10.238 9.701L.869 48.223a6.523 6.523 0 005.246 9.71l-1.774 3.303a6.5 6.5 0 005.54 9.794 6.46 6.46 0 006.062 8.328 6.29 6.29 0 005.571-3.252l.209-.33a6.338 6.338 0 0011.09-.207L42.39 57.85l.089 6.765a6.38 6.38 0 0011.021 4.35 6.393 6.393 0 0011.026-4.35l.09-6.765 9.57 17.725a6.342 6.342 0 0011.09.194l.135.214a6.343 6.343 0 009.184 2.265 6.625 6.625 0 002.52-7.219 6.5 6.5 0 005.55-9.78l-1.784-3.317a6.524 6.524 0 005.243-9.717L94.026 25.65c-.212-.423-.503-1.004-10.263-9.748a7.133 7.133 0 01-2.265-4.132l-1.273-7.606a1.783 1.783 0 00-1.758-1.489h-21.4c-.985 0-1.784.798-1.784 1.783 0 4.913-.258 32.575-.975 35.528-.264.877-.535 1.808-.808 2.73-.26-.891-.535-1.797-.783-2.64-.763-3.123-1-30.102-1-35.618 0-.985-.799-1.783-1.784-1.783zm5.543 46.533c.073-.69 1.223-4.79 2.27-8.286.865-3.536 1.104-30.368 1.104-34.68h18.106l1.018 6.113a10.727 10.727 0 003.41 6.206c6.47 5.796 9.184 8.382 9.475 8.738l12.127 22.606a3.095 3.095 0 01-1.151 4.187 2.74 2.74 0 01-3.566-1.015l-7.75-14.528a1.784 1.784 0 10-3.148 1.68c10.948 20.519 5.123 9.63 12.17 22.733A3.069 3.069 0 0198.732 67a2.832 2.832 0 01-4.006-1.004c-1.023-1.935 3.811 7.388-10.878-20.33a1.784 1.784 0 10-3.151 1.67c5.813 10.974 10.905 20.607 12.7 23.933a3.11 3.11 0 01-.798 4.043 2.812 2.812 0 01-4.102-1.106c-4.776-7.527-1.512-1.728-13.89-25.091a1.783 1.783 0 00-3.152 1.67c9.031 17.046 10.627 20.099 10.85 20.41a3.082 3.082 0 01-.91 3.693 2.832 2.832 0 01-4.07-1.003l-12.84-23.773a1.783 1.783 0 00-3.353.825l-.179 13.623a2.902 2.902 0 01-.861 2.033 2.837 2.837 0 01-4.81-2.084l.193-15.301zm-3.76 15.3a2.837 2.837 0 01-4.814 2.092 2.9 2.9 0 01-.862-2.03l-.178-13.625a1.783 1.783 0 00-3.353-.826L29.67 73.868a2.83 2.83 0 01-4.076 1.007 3.083 3.083 0 01-.908-3.693c.223-.31 1.819-3.364 10.85-20.409a1.783 1.783 0 10-3.151-1.67C20.06 72.366 23.1 66.936 18.425 74.315a2.814 2.814 0 01-4.027.984 3.11 3.11 0 01-.8-4.042c1.806-3.344 7.592-14.29 12.702-23.934a1.783 1.783 0 10-3.151-1.67c-14.588 27.551-9.844 18.4-10.868 20.33a2.839 2.839 0 01-4 1.008 3.076 3.076 0 01-.806-4.055c6.884-12.808 1.471-2.675 12.162-22.72a1.784 1.784 0 00-3.147-1.68L8.74 53.068a2.766 2.766 0 01-3.567 1.015 3.098 3.098 0 01-1.154-4.182L16.09 27.387c.497-.589 3.237-3.19 9.528-8.826a10.728 10.728 0 003.41-6.206l1.015-6.113H48.15c0 4.125.239 31.147 1.127 34.775 1.024 3.402 2.174 7.504 2.243 8.123l.197 15.372v-.003z" fill="#87AD3B"/></svg>
